v3/ui/src/layouts/Default/thales.svg

<svg width="80" height="80" viewBox="0 0 80 80" fill="none" xmlns="http://www.w3.org/2000/svg">
<path d="M64.4718 34.0875C64.2506 40.1029 60.2081 46.7485 52.2619 51.334C51.3174 51.9171 50.6429 52.8161 50.3743 53.8497C49.7211 57.2961 49.7417 60.7182 51.5418 63.9804C52.1459 65.0182 52.342 66.2237 52.0955 67.3844C51.8489 68.5452 51.1757 69.5867 50.1943 70.3254C49.312 71.0469 48.2007 71.4721 47.0345 71.5344C45.8682 71.5967 44.713 71.2925 43.7499 70.6696C41.6104 69.3317 41.0806 67.0148 41.6361 64.4942C42.3304 61.3774 42.5824 58.1928 42.9476 54.9888C43.1072 53.465 43.1844 51.9345 43.179 50.4033C43.179 47.7713 44.5625 46.162 47.0004 44.9114C55.0495 40.7864 57.8628 31.9014 53.6042 24.6063C50.5698 19.415 44.0739 16.1673 38.4267 17.0253C31.1903 18.1256 26.0163 22.459 24.8025 28.4405C23.5012 34.8631 26.3197 40.9415 32.1006 44.2037C36.6986 46.797 37.861 49.0509 36.5906 53.8982C36.3751 54.5471 36.0231 55.1485 35.5556 55.6665C35.0882 56.1844 34.5149 56.6084 33.8699 56.9131C32.1521 57.6257 30.3828 56.7871 29.673 55.0712C28.6444 52.6039 26.5871 51.2273 24.4784 49.7101C15.3647 43.1761 12.4331 31.281 17.3963 21.4508C19.8203 16.5851 23.9484 12.6546 29.0861 10.3205C34.2239 7.98638 40.0578 7.39107 45.6066 8.63471C56.6644 11.0341 64.5798 20.5347 64.4718 34.0875Z" fill="white"/>
<path d="M46.6955 38.7816C43.1724 41.9517 37.5201 41.8644 33.7244 38.4326C29.9288 35.0008 30.1859 28.2049 33.2976 26.1109L46.6955 38.7816Z" fill="white"/>
</svg>

<svg width="80" height="80" fill="none" xmlns="http://www.w3.org/2000/svg">
  <path fill="#fff" d="M64.472 34.087c-.221 6.016-4.264 12.661-12.21 17.247a4.217 4.217 0 0 0-1.888 2.516c-.653 3.446-.632 6.868 1.168 10.13.604 1.038.8 2.244.553 3.404a4.989 4.989 0 0 1-1.9 2.941 5.455 5.455 0 0 1-3.16 1.21 5.517 5.517 0 0 1-3.285-.865c-2.14-1.338-2.67-3.655-2.114-6.176.694-3.117.946-6.301 1.312-9.505.16-1.524.236-3.054.231-4.586 0-2.632 1.383-4.241 3.821-5.492 8.05-4.125 10.863-13.01 6.604-20.305-3.034-5.191-9.53-8.439-15.177-7.58-7.237 1.1-12.41 5.433-13.625 11.415-1.3 6.422 1.518 12.5 7.299 15.763 4.598 2.593 5.76 4.847 4.49 9.694a4.987 4.987 0 0 1-1.035 1.768 5.34 5.34 0 0 1-1.686 1.247c-1.718.713-3.487-.126-4.197-1.842-1.029-2.467-3.086-3.844-5.195-5.36-9.113-6.535-12.045-18.43-7.082-28.26 2.424-4.866 6.552-8.796 11.69-11.13 5.138-2.335 10.972-2.93 16.52-1.686 11.058 2.4 18.974 11.9 18.866 25.453Z"/>
  <path fill="#fff" d="M46.696 38.782c-3.524 3.17-9.176 3.082-12.972-.35-3.795-3.431-3.538-10.227-.426-12.321l13.398 12.67Z"/>
</svg>
